X: 49
T:Spanish Pavan
M:C|
L:1/4
R:Pavan
D:Steve Mansfield March 2001
B:Thoinot Arbeau : Orchesographie, 1589
K:DDor
d4 | c3 A | B2 c2 | d3 e | 
dB cd | e4 | e2 e2 | e3 g |
f2 e2 | d3 c | df ed | c2 d2 |
B2 c2 | d3 c | Bc de | d2 || 

